X:158
T:Terry's Fancy 
C:Joe Buchanan's Scottish Tome - Page 261.2
I:261 2
R:Jig
Z:Carl Allison
L:1/8
M:6/8
K:D
"D" A | d3 def | A2 A AFA | def ede | d2 A AFA |
"G"g2 e "D"fed |"G" Bcd "A"cde |"D" Agf "A7"gec |"D" edd d2 :|
a | "D"fga fga | "A7"efg efg |"D" afd dcd |"A7" e2 c A2 g |
"D"fed "G"gfe |"D" agf "G"b2 g | "D"f2 d "A7"A2 e | cde "D"d2 :|
%
W:Errata: Added chords for first line IAW the second line of tune.

